tvb.svg

<svg viewBox="0 0 24 24" xmlns="http://www.w3.org/2000/svg"><path d="M7.56044 2.45398L16.4396 2.45398C20.6151 2.45398 24 5.83891 24 10.0144L24 13.9856C24 18.1611 20.6151 21.546 16.4396 21.546L7.56044 21.546C3.38493 21.546 1.13687e-13 18.1611 0 13.9856L0 10.0144C0 5.83891 3.38493 2.45398 7.56044 2.45398Z" fill="#ffffff"/><path d="M4.34135 8.81058L19.8201 8.80933C19.8201 8.80933 17.9306 3.80575 12.0677 3.82666C6.20484 3.84757 4.34135 8.81058 4.34135 8.81058Z" fill="#00b0ed"/><path d="M4.05244 9.47913L20.0543 9.48051C20.6058 10.8412 20.5478 13.083 20.065 14.2668L4.04109 14.2666C3.55099 13.1484 3.5457 10.6452 4.05244 9.47913Z" fill="#35b256"/><path d="M4.31849 14.8546L19.7973 14.8558C19.7973 14.8558 17.9077 19.8594 12.0449 19.8385C6.18198 19.8176 4.31849 14.8546 4.31849 14.8546Z" fill="#ee3845"/></svg>

<svg viewBox="0 0 24 24" xmlns="http://www.w3.org/2000/svg"><path d="M7.56 2.454h8.88a7.56 7.56 0 0 1 7.56 7.56v3.972a7.56 7.56 0 0 1-7.56 7.56H7.56A7.56 7.56 0 0 1 0 13.986v-3.972a7.56 7.56 0 0 1 7.56-7.56Z" fill="#fff"/><path d="M4.341 8.81h15.48s-1.89-5.004-7.753-4.983C6.205 3.847 4.34 8.81 4.34 8.81Z" fill="#00b0ed"/><path d="M4.052 9.48h16.002c.552 1.361.494 3.603.011 4.787H4.041c-.49-1.119-.495-3.622.011-4.788Z" fill="#35b256"/><path d="M4.318 14.855h15.48s-1.89 5.004-7.753 4.983c-5.863-.02-7.727-4.983-7.727-4.983Z" fill="#ee3845"/></svg>
